icons/svg/check-all.svg

﻿<?xml version="1.0" encoding="utf-8"?>
<!DOCTYPE svg PUBLIC "-//W3C//DTD SVG 1.1//EN" "http://www.w3.org/Graphics/SVG/1.1/DTD/svg11.dtd">
<svg xmlns="http://www.w3.org/2000/svg" xmlns:xlink="http://www.w3.org/1999/xlink" version="1.1" baseProfile="full" width="24" height="24" viewBox="0 0 24.00 24.00" enable-background="new 0 0 24.00 24.00" xml:space="preserve">
	<path fill="#050708" fill-opacity="1" stroke-width="0.2" stroke-linejoin="round" d="M 0.413493,13.412L 5.99951,18.998L 7.41349,17.584L 1.82749,11.998M 22.2425,5.58405L 11.6565,16.17L 7.48451,11.998L 6.07051,13.412L 11.6565,18.998L 23.6565,6.99805M 17.9995,6.99805L 16.5855,5.58405L 10.2425,11.9271L 11.6565,13.3411L 17.9995,6.99805 Z "/>
</svg>

<svg xmlns="http://www.w3.org/2000/svg" version="1.1" baseProfile="full" width="24" height="24" viewBox="0 0 24.00 24.00" xml:space="preserve"><path fill="#050708" fill-opacity="1" stroke-width=".2" stroke-linejoin="round" d="M.413 13.412L6 18.998l1.413-1.414-5.586-5.586m20.415-6.414L11.656 16.17l-4.17-4.172-1.415 1.414 5.586 5.586 12-12m-5.656 0l-1.415-1.414-6.343 6.343 1.414 1.414L18 7z"/></svg>
